X:1
T:Title
%%score { ( 1 4 ) | ( 2 3 ) }
L:1/8
Q:1/4=100
M:4/4
K:Bb
V:1 treble nm="Grand Piano"
V:4 treble 
V:2 bass 
V:3 bass 
V:1
 D2 D2 D3 E | [DF]2 [B,DF]2 [B,DF]2 F2 | G2 G2 [CA]3 B | c2 c2 c4 | [DB]2 [B,DF]2 [B,D]3 F | %5
w: Ira~B.~Wilson * * *|||||
 A2 G2 A2 G2 | F2 B2 B3 [Gc] | [FB]2 [EA]2 [DB]4 | [EG]4 [GB]4 | [DF]4 [DFB]4 | %10
w: |||||
 [EA]2 [A,EG]2 [EA]2 [A,EG]2 | [DF]6 z2 | [EG]4 [EGB]4 | [DF]4 [DFB]4 | [EA]2 [A,EG]2 [EF]2 [Ec]2 | %15
w: |||||
 [DB]6 z2 |] %16
w: |
V:2
 [B,,B,]2 [F,B,]2 B,3 C | B,,2 F,2 F,2 D2 | E2 E2 z2 z B, | [F,A,F]2 [G,B,=E]2 [F,A,_E]4 | %4
 B,,2 F,2 F,2 z D | [E,B,E]4 [=E,B,_D]4 | [F,B,D]2 [F,DF]2 [F,DF]3 [E,E] | %7
 [F,D]2 [F,C]2 [B,,F,B,]4 | [E,,E,]2 [E,G,]2 [E,G,B,]2 E,2 | B,,2 F,2 F,2 F,2 | C,2 F,2 F,,2 F,2 | %11
 B,,2 F,2 F,2 F,2 | [E,,E,]2 [E,G,]2 [E,G,B,]2 E,2 | B,,2 F,2 F,2 F,2 | C,2 F,2 F,,2 [F,A,]2 | %15
 [B,,B,]2 F,2 B,,2 z2 |] %16
V:3
 z4 F,2 z2 | x8 | [E,B,]4 C,4 | x8 | x8 | x8 | x8 | x8 | x8 | x8 | x8 | x8 | x8 | x8 | x8 | x8 |] %16
V:4
 x8 | x8 | z4 =E4 | x8 | x8 | x8 | x8 | x8 | z2 B,2 z2 [G,B,]2 | z2 B,2 B,2 B,2 | x8 | %11
 z2 B,2 B,2 B,2 | z2 B,2 z2 [G,B,]2 | z2 B,2 B,2 B,2 | x8 | x8 |] %16

